X:034
T:Cuckoo's Nest (hornpipe) 
B:CRE3.221 (Nead na Cuaiche)
F:file ID: cre.3/034cuckoo
N:CRE version does not include any F naturals. I have added a
version which does.
R:hornpipe
L:1/8
Q:150
M:C
K:G
A2|B2BA GBdf|gfdB c2dc|B3G FGAB|c2A2 A2dc|
"5"BcBA GBdf|gfdB c2dc|B3G FGAc|B2G2 G2:|
(3ABc|"9"dggf gabg|afdc d3e|f2fe fgaf|gfdB c2dc|
"13"(3BAG Bd gabg|afdB c2dc|B3G FGAc|B2 GG G2:|
(3ABc|"17"dBGB dBGB|dcBA G2AB|cAFA cAFA|cBAG F2BA|
"21"GABc dgg2|bgdB c2dc|B3G FGAc|B2G2 G2:|

%%%

